/* XPM */
static char * stick_toggled_inactive_xpm[] = {
"16 24 8 1",
"       c None",
".      c #000000 s active_border_color",
"s      c #837F78 s active_shadow_2",
"*      c #B8B5AF s active_color_2",
"@      c #B8B5AF s active_color_2",
"h      c #EBEAE8 s active_hilight_2",
"-      c #000000",
"$      c #928e84 s inactive_color_1",
"@@@@@@@@@@@@@@@@",
"hhhhhhhhhhhhhhhh",
"@@@@@@@@@@@@@@@@",
"@@@@@@@@@@@@@@@@",
"$$$$$$$$$$$$$$$$",
"$$$$$$$$$$$$$$$$",
"ssssssssssssssss",
"s--------------h",
"s-@@@@@@@@@@@@*h",
"s-@@@@@@@@@@@@*h",
"s-@@@@@....@@@*h",
"s-@@@@.@@@@.@@*h",
"s-@@@.@@..@@.@*h",
"s-@@@.@....@.@*h",
"s-@@@.@....@.@*h",
"s-@@@.@@..@@.@*h",
"s-@@@@.@@@@.@@*h",
"s-@@@@@....@@@*h",
"s-*************h",
"shhhhhhhhhhhhhhh",
"$$$$$$$$$$$$$$$$",
"$$$$$$$$$$$$$$$$",
"@@@@@@@@@@@@@@@@",
"@@@@@@@@@@@@@@@@"};
